X: 21858
T: Kishkeam Lasses, The
R: slide
M: 12/8
K: Dmajor
|:ABd e2d c2E E2E|DEG A2G F2D D2D|
ABd e2d c2E E2B|ABA GFE D3 D3:|
|:f2d B2A d2f a2f|e2A ABA e2g g2e|
f2B B2A d2f a2f|e2A B2A d3 d3:|

